X:280
T: O'er Bogie
N: O'Farrell's Pocket Companion v.3 (Sky ed. p.128)
N: "Scotch"
M: C
L: 1/8
R: hornpipe
Q: 280
K: D
AB| d>ddB dAAB| d>edB {B}A3A|Beed e>fgb| a>fed B2 :|
A>B| ddfa ddf/g/a| dedB A3A| Beed e>fgb| afed B2 :|
